images/document.svg

<svg width="17" height="20" viewBox="0 0 17 20" fill="none" xmlns="http://www.w3.org/2000/svg">
<path d="M4.71683 3.8232C4.19582 3.8232 3.77346 4.24823 3.77346 4.77253C3.77346 5.29683 4.19582 5.72186 4.71683 5.72186H12.2638C12.7848 5.72186 13.2071 5.29683 13.2071 4.77253C13.2071 4.24823 12.7848 3.8232 12.2638 3.8232H4.71683Z" fill="#0086FF"/>
<path d="M3.77346 8.56985C3.77346 8.04555 4.19582 7.62052 4.71683 7.62052H12.2638C12.7848 7.62052 13.2071 8.04555 13.2071 8.56985C13.2071 9.09415 12.7848 9.51918 12.2638 9.51918H4.71683C4.19582 9.51918 3.77346 9.09415 3.77346 8.56985Z" fill="#0086FF"/>
<path d="M4.71683 11.4178C4.19582 11.4178 3.77346 11.8429 3.77346 12.3672C3.77346 12.8915 4.19582 13.3165 4.71683 13.3165H8.49029C9.0113 13.3165 9.43365 12.8915 9.43365 12.3672C9.43365 11.8429 9.0113 11.4178 8.49029 11.4178H4.71683Z" fill="#0086FF"/>
<path fill-rule="evenodd" clip-rule="evenodd" d="M1.88673 0.0258789C0.844718 0.0258789 0 0.875938 0 1.92454V17.1138C0 18.1624 0.844718 19.0125 1.88673 19.0125H15.0938C16.1359 19.0125 16.9806 18.1624 16.9806 17.1138V1.92454C16.9806 0.875938 16.1359 0.0258789 15.0938 0.0258789H1.88673ZM15.0938 1.92454H1.88673L1.88673 17.1138H9.96398L15.0938 11.5213V1.92454ZM15.0938 17.1138H12.5317L15.0938 14.3206V17.1138Z" fill="#0086FF"/>
</svg>

<svg width="17" height="20" fill="none" xmlns="http://www.w3.org/2000/svg"><path d="M4.717 3.823a.946.946 0 0 0-.944.95c0 .524.423.949.944.949h7.547a.946.946 0 0 0 .943-.95.946.946 0 0 0-.943-.949H4.717ZM3.773 8.57c0-.524.423-.95.944-.95h7.547c.52 0 .943.426.943.95s-.422.95-.943.95H4.717a.946.946 0 0 1-.944-.95Zm.944 2.848a.946.946 0 0 0-.944.95c0 .524.423.948.944.948H8.49a.946.946 0 0 0 .944-.949.946.946 0 0 0-.944-.95H4.717Z" fill="#0086FF"/><path fill-rule="evenodd" clip-rule="evenodd" d="M1.887.026C.845.026 0 .876 0 1.925v15.189c0 1.048.845 1.898 1.887 1.898h13.207c1.042 0 1.887-.85 1.887-1.898V1.924A1.893 1.893 0 0 0 15.094.027H1.887Zm13.207 1.899H1.887v15.189h8.077l5.13-5.593V1.925Zm0 15.189h-2.562l2.562-2.793v2.793Z" fill="#0086FF"/></svg>
